X:9
T:reel du Bonhomme
M:4/4
K:D
aa |\
abafd2aa | abaed2ab | a2g2f2e2 | e2d2d2aa |\
abaed2aa | abaed2ab | a2g2f2e2 |[1 d6 :|[2 d8 ||
|:\
d2Bde2d=c | Bdgab2ab | =c'e'=c'a fdef | gfgb e'd'bg |\
d2Bde2d=c | Bdgab2ab | =c'e'=c'a fdef |[1 g2b2g2e2 :|[2 g2b2g2 ||
(3def |\
g2f2e2d2 | B4B2(3GAG | FADFA2GF | GBDG B2(3def |\
g2f2e2d2 | B4B2(3GAG | FADFA2GF | GgdBG2 :|
